X:1123
T:A Blast of Wind
R:slip jig
B:O'Neill's 1123
Z:Transcribed by Michael Hogan
M:9/8
L:1/8
K:D
Ad3 dAG FED|Ad2d dAF G2E|ABc dAG FGA|cBc E2F G2E :||
d2g fdf ece|d2g fdf g2e|d2g fdf ece|cBc E2F G2E|
d2g fdf ece|d2g fdf g2e|afd gec d2B|cBc E2F G2E||
